rospo-icon-theme-classic-common/24x24/apps/christmas-tree.svg

<svg height="24" width="24" xmlns="http://www.w3.org/2000/svg"><path d="m12.090575 8.5021445a1.9324752 1.9466645 0 0 0 -1.764339.971334l-2.5332895 4.4204255-2.5342325 4.420425a1.9324752 1.9466645 0 0 0  .5906285 2.585155s2.4344195 1.600516 6.1506575 1.600516 6.150657-1.600516 6.150657-1.600516a1.9324752 1.9466645 0 0 0  .590629-2.585155l-2.534233-4.420425-2.533289-4.4204255a1.9324752 1.9466645 0 0 0 -1.583189-.971334z" opacity=".2"/><path d="m12.090575 8.0021445a1.9324752 1.9466645 0 0 0 -1.764339.971334l-2.5332895 4.4204255-2.5342325 4.420425a1.9324752 1.9466645 0 0 0  .5906285 2.585155s2.4344195 1.600516 6.1506575 1.600516 6.150657-1.600516 6.150657-1.600516a1.9324752 1.9466645 0 0 0  .590629-2.585155l-2.534233-4.420425-2.533289-4.4204255a1.9324752 1.9466645 0 0 0 -1.583189-.971334z" fill="#337f36"/><path d="m12.077636 6.501838a1.6564074 1.6685697 0 0 0 -1.512291.832572l-2.171391 3.788936-2.1721995 3.788937a1.6564074 1.6685697 0 0 0  .506253 2.215847s2.0866455 1.37187 5.2719915 1.37187c3.185348 0 5.271993-1.37187 5.271993-1.37187a1.6564074 1.6685697 0 0 0  .506254-2.215847l-2.1722-3.788937-2.171391-3.788936a1.6564074 1.6685697 0 0 0 -1.357019-.832572z" opacity=".2"/><path d="m12.077636 6.001838a1.6564074 1.6685697 0 0 0 -1.512291.832572l-2.171391 3.788936-2.1721995 3.788937a1.6564074 1.6685697 0 0 0  .506253 2.215847s2.0866455 1.37187 5.2719915 1.37187c3.185348 0 5.271993-1.37187 5.271993-1.37187a1.6564074 1.6685697 0 0 0  .506254-2.215847l-2.1722-3.788937-2.171391-3.788936a1.6564074 1.6685697 0 0 0 -1.357019-.832572z" fill="#3e9d43"/><path d="m12.064696 4.5015315a1.3803395 1.3904748 0 0 0 -1.260242.69381l-1.8094925 3.1574465-1.810166 3.157448a1.3803395 1.3904748 0 0 0  .4218775 1.846539s1.738871 1.143225 4.393326 1.143225c2.654457 0 4.393327-1.143225 4.393327-1.143225a1.3803395 1.3904748 0 0 0  .421878-1.846539l-1.810166-3.157448-1.809492-3.1574465a1.3803395 1.3904748 0 0 0 -1.13085-.69381z" opacity=".2"/><path d="m12.064696 4.0015315a1.3803395 1.3904748 0 0 0 -1.260242.69381l-1.8094925 3.1574465-1.810166 3.157448a1.3803395 1.3904748 0 0 0  .4218775 1.846539s1.738871 1.143225 4.393326 1.143225c2.654457 0 4.393327-1.143225 4.393327-1.143225a1.3803395 1.3904748 0 0 0  .421878-1.846539l-1.810166-3.157448-1.809492-3.1574465a1.3803395 1.3904748 0 0 0 -1.13085-.69381z" fill="#5dc062"/><path d="m11 12.5a1 1 0 0 1 -1 1 1 1 0 0 1 -1-1 1 1 0 0 1 1-1 1 1 0 0 1 1 1z" opacity=".2"/><path d="m11.999952 2.500091c-.360604.00534-.617775.230315-.738465.6027375l.0045-.016795-.56659 1.4645345h-1.4108258c-.00415-.0000692-.00811-.0000692-.012275 0-.228172.00766-.4339125.1180012-.5788675.3007831-.3134935.372713-.247049.809042.1510415 1.0870065l1.0023443 1.1371165-.5829595 1.3753307c-.00065.00205-.00125.00415-.00185.00625-.089076.303075-.00534.615315.21875.828911.00155.0016.0035.00315.00522.0047.2692515.2479095.647566.2794185.951634.074219.0058-.0039.01154-.00792.01711-.01211l1.541297-1.15274 1.54129 1.15274c.0056.00415.01132.00824.01711.01211.304068.205199.682383.17369.951634-.074219.0016-.00155.0035-.0031.0052-.0047.224061-.213596.307826-.525836.218749-.828911l-.0018-.00625-.582993-1.3753307 1.002327-1.137116c.39809-.277965.464535-.714294.15104-1.0870068-.144954-.182782-.350695-.2931232-.578867-.3007832-.0042-.0000691-.0081-.0000691-.01228 0h-1.410807l-.56659-1.4645344.0045.016795c-.120802-.3724227-.377973-.5973993-.738577-.6027377z" opacity=".2"/><path d="m11.999952 1.9996312c-.360604.00534-.617775.230315-.738465.6027375l.0045-.016795-.56659 1.4645345h-1.4108258c-.00415-.0000692-.00811-.0000692-.012275 0-.228172.00766-.4339125.1180012-.5788675.3007831-.3134935.372713-.247049.809042.1510415 1.0870065l1.0023443 1.1371165-.5829595 1.3753307c-.00065.00205-.00125.00415-.00185.00625-.089076.303075-.00534.615315.21875.828911.00155.0016.0035.00315.00522.0047.2692515.2479095.647566.2794185.951634.074219.0058-.0039.01154-.00792.01711-.01211l1.541297-1.15274 1.54129 1.15274c.0056.00415.01132.00824.01711.01211.304068.205199.682383.17369.951634-.074219.0016-.00155.0035-.0031.0052-.0047.224061-.213596.307826-.525836.218749-.828911l-.0018-.00625-.582993-1.3753307 1.002327-1.137116c.39809-.277965.464535-.714294.15104-1.0870068-.144954-.182782-.350695-.2931232-.578867-.3007832-.0042-.0000691-.0081-.0000691-.01228 0h-1.410807l-.56659-1.4645344.0045.016795c-.120802-.3724227-.377973-.5973993-.738577-.6027377z" fill="#ae3030"/><path d="m11 12a1 1 0 0 1 -1 1 1 1 0 0 1 -1-1 1 1 0 0 1 1-1 1 1 0 0 1 1 1z" fill="#ffe15e"/><path d="m16 15.5a1 1 0 0 1 -1 1 1 1 0 0 1 -1-1 1 1 0 0 1 1-1 1 1 0 0 1 1 1z" opacity=".2"/><path d="m16 15a1 1 0 0 1 -1 1 1 1 0 0 1 -1-1 1 1 0 0 1 1-1 1 1 0 0 1 1 1z" fill="#ffe15e"/><path d="m10 20.5a1 1 0 0 1 -1 1 1 1 0 0 1 -1-1 1 1 0 0 1 1-1 1 1 0 0 1 1 1z" opacity=".2"/><path d="m10 20a1 1 0 0 1 -1 1 1 1 0 0 1 -1-1 1 1 0 0 1 1-1 1 1 0 0 1 1 1z" fill="#ffe15e"/><path d="m14 12a .5.5 0 0 1 -.5.5.5.5 0 0 1 -.5-.5.5.5 0 0 1  .5-.5.5.5 0 0 1  .5.5z" opacity=".2"/><path d="m14 11.5a.5.5 0 0 1 -.5.5.5.5 0 0 1 -.5-.5.5.5 0 0 1  .5-.5.5.5 0 0 1  .5.5z" fill="#ffe15e"/><path d="m12 17a .5.5 0 0 1 -.5.5.5.5 0 0 1 -.5-.5.5.5 0 0 1  .5-.5.5.5 0 0 1  .5.5z" opacity=".2"/><path d="m12 16.5a.5.5 0 0 1 -.5.5.5.5 0 0 1 -.5-.5.5.5 0 0 1  .5-.5.5.5 0 0 1  .5.5z" fill="#ffe15e"/><path d="m15 20a .5.5 0 0 1 -.5.5.5.5 0 0 1 -.5-.5.5.5 0 0 1  .5-.5.5.5 0 0 1  .5.5z" opacity=".2"/><path d="m15 19.5a.5.5 0 0 1 -.5.5.5.5 0 0 1 -.5-.5.5.5 0 0 1  .5-.5.5.5 0 0 1  .5.5z" fill="#ffe15e"/><path d="m9 15a .5.5 0 0 1 -.5.5.5.5 0 0 1 -.5-.5.5.5 0 0 1  .5-.5.5.5 0 0 1  .5.5z" opacity=".2"/><path d="m9 14.5a.5.5 0 0 1 -.5.5.5.5 0 0 1 -.5-.5.5.5 0 0 1  .5-.5.5.5 0 0 1  .5.5z" fill="#ffe15e"/><path d="m18 19a .5.5 0 0 1 -.5.5.5.5 0 0 1 -.5-.5.5.5 0 0 1  .5-.5.5.5 0 0 1  .5.5z" opacity=".2"/><path d="m18 18.5a.5.5 0 0 1 -.5.5.5.5 0 0 1 -.5-.5.5.5 0 0 1  .5-.5.5.5 0 0 1  .5.5z" fill="#ffe15e"/><path d="m12 2c-.360604.00534-.617591.22914-.738281.6015625l.003906-.015625-.566406 1.4648437h-1.4101565c-.00415-.0000692-.0095069-.0000692-.0136719 0-.228172.00766-.43317.1179994-.578125.3007813-.2004799.238351-.2285112.4981398-.1308594.7304687.0326956-.0780014.0680459-.1557896.1308594-.2304687.144955-.1827819.349953-.2931213.578125-.3007813.004165-.0000692.0095219-.0000692.0136719 0h1.4101565l.566406-1.4648437-.003906.0175781c.12069-.3724225.377677-.5981756.738281-.6035156.360604.0053384.617479.2310929.738281.6035156l-.003906-.0175781.566406 1.4648437h1.410157c.004179-.0000691.009471-.0000691.013671 0 .228172.00766.433171.1179993.578125.3007813.062814.0746791.098164.1524673.13086.2304687.097651-.232329.069621-.4921178-.13086-.7304687-.144954-.182782-.349953-.2931212-.578125-.3007813-.0042-.0000691-.009492-.0000691-.013671 0h-1.410157l-.566406-1.4648437.003906.015625c-.120802-.3724227-.377677-.5962241-.738281-.6015625zm-2.2929688 4.9140625-.4394531 1.0371094c-.00065.00205-.0013531.0037594-.0019531.0058593-.0483901.1646441-.0405927.3296524.0078125.4824219l.578125-1.3632812zm4.5859378 0-.144531.1621094.578124 1.3632812c.048409-.1527695.056204-.3177778.007813-.4824219l-.001953-.0058593z" fill="#fff" opacity=".2"/></svg>

<svg xmlns="http://www.w3.org/2000/svg" width="24" height="24" version="1">
 <path d="m 12.090575,8.5021445 a 1.9324752,1.9466645 0 0 0 -1.764339,0.971334 L 7.7929465,13.893904 5.258714,18.314329 a 1.9324752,1.9466645 0 0 0 0.5906285,2.585155 c 0,0 2.4344195,1.600516 6.1506575,1.600516 3.716238,0 6.150657,-1.600516 6.150657,-1.600516 a 1.9324752,1.9466645 0 0 0 0.590629,-2.585155 L 16.207053,13.893904 13.673764,9.4734785 a 1.9324752,1.9466645 0 0 0 -1.583189,-0.971334 z" style="opacity:0.2"/>
 <path style="fill:#337f36" d="m 12.090575,8.0021445 a 1.9324752,1.9466645 0 0 0 -1.764339,0.971334 L 7.7929465,13.393904 5.258714,17.814329 a 1.9324752,1.9466645 0 0 0 0.5906285,2.585155 C 5.8493425,20.399484 8.283762,22 12,22 c 3.716238,0 6.150657,-1.600516 6.150657,-1.600516 a 1.9324752,1.9466645 0 0 0 0.590629,-2.585155 L 16.207053,13.393904 13.673764,8.9734785 a 1.9324752,1.9466645 0 0 0 -1.583189,-0.971334 z"/>
 <path style="opacity:0.2" d="M 12.077636,6.501838 A 1.6564074,1.6685697 0 0 0 10.565345,7.33441 l -2.171391,3.788936 -2.1721995,3.788937 a 1.6564074,1.6685697 0 0 0 0.506253,2.215847 c 0,0 2.0866455,1.37187 5.2719915,1.37187 3.185348,0 5.271993,-1.37187 5.271993,-1.37187 a 1.6564074,1.6685697 0 0 0 0.506254,-2.215847 L 15.606046,11.123346 13.434655,7.33441 A 1.6564074,1.6685697 0 0 0 12.077636,6.501838 Z"/>
 <path d="M 12.077636,6.001838 A 1.6564074,1.6685697 0 0 0 10.565345,6.83441 l -2.171391,3.788936 -2.1721995,3.788937 a 1.6564074,1.6685697 0 0 0 0.506253,2.215847 c 0,0 2.0866455,1.37187 5.2719915,1.37187 3.185348,0 5.271993,-1.37187 5.271993,-1.37187 a 1.6564074,1.6685697 0 0 0 0.506254,-2.215847 L 15.606046,10.623346 13.434655,6.83441 A 1.6564074,1.6685697 0 0 0 12.077636,6.001838 Z" style="fill:#3e9d43"/>
 <path d="m 12.064696,4.5015315 a 1.3803395,1.3904748 0 0 0 -1.260242,0.69381 L 8.9949615,8.352788 7.1847955,11.510236 a 1.3803395,1.3904748 0 0 0 0.4218775,1.846539 c 0,0 1.738871,1.143225 4.393326,1.143225 2.654457,0 4.393327,-1.143225 4.393327,-1.143225 a 1.3803395,1.3904748 0 0 0 0.421878,-1.846539 L 15.005038,8.352788 13.195546,5.1953415 a 1.3803395,1.3904748 0 0 0 -1.13085,-0.69381 z" style="opacity:0.2"/>
 <path style="fill:#5dc062" d="m 12.064696,4.0015315 a 1.3803395,1.3904748 0 0 0 -1.260242,0.69381 L 8.9949615,7.852788 7.1847955,11.010236 a 1.3803395,1.3904748 0 0 0 0.4218775,1.846539 c 0,0 1.738871,1.143225 4.393326,1.143225 2.654457,0 4.393327,-1.143225 4.393327,-1.143225 a 1.3803395,1.3904748 0 0 0 0.421878,-1.846539 L 15.005038,7.852788 13.195546,4.6953415 a 1.3803395,1.3904748 0 0 0 -1.13085,-0.69381 z"/>
 <path d="m 11,12.5 a 1,1 0 0 1 -1,1 1,1 0 0 1 -1,-1 1,1 0 0 1 1,-1 1,1 0 0 1 1,1 z" style="opacity:0.2"/>
 <path d="m 11.999952,2.500091 c -0.360604,0.00534 -0.617775,0.230315 -0.738465,0.6027375 l 0.0045,-0.016795 -0.56659,1.4645345 -1.4108258,0 c -0.00415,-6.92e-5 -0.00811,-6.92e-5 -0.012275,0 -0.228172,0.00766 -0.4339125,0.1180012 -0.5788675,0.3007831 -0.3134935,0.372713 -0.247049,0.809042 0.1510415,1.0870065 L 9.8508145,7.0754741 9.267855,8.4508048 c -6.5e-4,0.00205 -0.00125,0.00415 -0.00185,0.00625 -0.089076,0.303075 -0.00534,0.615315 0.21875,0.828911 0.00155,0.0016 0.0035,0.00315 0.00522,0.0047 0.2692515,0.2479095 0.647566,0.2794185 0.951634,0.074219 0.0058,-0.0039 0.01154,-0.00792 0.01711,-0.01211 l 1.541297,-1.15274 1.54129,1.15274 c 0.0056,0.00415 0.01132,0.00824 0.01711,0.01211 0.304068,0.205199 0.682383,0.17369 0.951634,-0.074219 0.0016,-0.00155 0.0035,-0.0031 0.0052,-0.0047 0.224061,-0.213596 0.307826,-0.525836 0.218749,-0.828911 l -0.0018,-0.00625 -0.582993,-1.3753307 1.002327,-1.137116 c 0.39809,-0.277965 0.464535,-0.714294 0.15104,-1.0870068 -0.144954,-0.182782 -0.350695,-0.2931232 -0.578867,-0.3007832 -0.0042,-6.91e-5 -0.0081,-6.91e-5 -0.01228,0 l -1.410807,0 -0.56659,-1.4645344 0.0045,0.016795 C 12.617727,2.730406 12.360556,2.5054294 11.999952,2.500091 Z" style="opacity:0.2"/>
 <path style="fill:#ae3030" d="m 11.999952,1.9996312 c -0.360604,0.00534 -0.617775,0.230315 -0.738465,0.6027375 l 0.0045,-0.016795 -0.56659,1.4645345 -1.4108258,0 c -0.00415,-6.92e-5 -0.00811,-6.92e-5 -0.012275,0 -0.228172,0.00766 -0.4339125,0.1180012 -0.5788675,0.3007831 -0.3134935,0.372713 -0.247049,0.809042 0.1510415,1.0870065 L 9.8508145,6.5750143 9.267855,7.950345 c -6.5e-4,0.00205 -0.00125,0.00415 -0.00185,0.00625 -0.089076,0.303075 -0.00534,0.615315 0.21875,0.828911 0.00155,0.0016 0.0035,0.00315 0.00522,0.0047 0.2692515,0.2479095 0.647566,0.2794185 0.951634,0.074219 0.0058,-0.0039 0.01154,-0.00792 0.01711,-0.01211 l 1.541297,-1.15274 1.54129,1.15274 c 0.0056,0.00415 0.01132,0.00824 0.01711,0.01211 0.304068,0.205199 0.682383,0.17369 0.951634,-0.074219 0.0016,-0.00155 0.0035,-0.0031 0.0052,-0.0047 0.224061,-0.213596 0.307826,-0.525836 0.218749,-0.828911 l -0.0018,-0.00625 -0.582993,-1.3753307 1.002327,-1.137116 c 0.39809,-0.277965 0.464535,-0.714294 0.15104,-1.0870068 -0.144954,-0.182782 -0.350695,-0.2931232 -0.578867,-0.3007832 -0.0042,-6.91e-5 -0.0081,-6.91e-5 -0.01228,0 l -1.410807,0 -0.56659,-1.4645344 0.0045,0.016795 C 12.617727,2.2299462 12.360556,2.0049696 11.999952,1.9996312 Z"/>
 <path style="fill:#ffe15e" d="m 11,12 a 1,1 0 0 1 -1,1 1,1 0 0 1 -1,-1 1,1 0 0 1 1,-1 1,1 0 0 1 1,1 z"/>
 <path style="opacity:0.2" d="m 16,15.5 a 1,1 0 0 1 -1,1 1,1 0 0 1 -1,-1 1,1 0 0 1 1,-1 1,1 0 0 1 1,1 z"/>
 <path d="m 16,15 a 1,1 0 0 1 -1,1 1,1 0 0 1 -1,-1 1,1 0 0 1 1,-1 1,1 0 0 1 1,1 z" style="fill:#ffe15e"/>
 <path d="m 10,20.5 a 1,1 0 0 1 -1,1 1,1 0 0 1 -1,-1 1,1 0 0 1 1,-1 1,1 0 0 1 1,1 z" style="opacity:0.2"/>
 <path style="fill:#ffe15e" d="m 10,20 a 1,1 0 0 1 -1,1 1,1 0 0 1 -1,-1 1,1 0 0 1 1,-1 1,1 0 0 1 1,1 z"/>
 <path style="opacity:0.2" d="M 14,12 A 0.5,0.5 0 0 1 13.5,12.5 0.5,0.5 0 0 1 13,12 0.5,0.5 0 0 1 13.5,11.5 0.5,0.5 0 0 1 14,12 Z"/>
 <path d="M 14,11.5 A 0.5,0.5 0 0 1 13.5,12 0.5,0.5 0 0 1 13,11.5 0.5,0.5 0 0 1 13.5,11 0.5,0.5 0 0 1 14,11.5 Z" style="fill:#ffe15e"/>
 <path d="M 12,17 A 0.5,0.5 0 0 1 11.5,17.5 0.5,0.5 0 0 1 11,17 0.5,0.5 0 0 1 11.5,16.5 0.5,0.5 0 0 1 12,17 Z" style="opacity:0.2"/>
 <path style="fill:#ffe15e" d="M 12,16.5 A 0.5,0.5 0 0 1 11.5,17 0.5,0.5 0 0 1 11,16.5 0.5,0.5 0 0 1 11.5,16 0.5,0.5 0 0 1 12,16.5 Z"/>
 <path style="opacity:0.2" d="M 15,20 A 0.5,0.5 0 0 1 14.5,20.5 0.5,0.5 0 0 1 14,20 0.5,0.5 0 0 1 14.5,19.5 0.5,0.5 0 0 1 15,20 Z"/>
 <path d="M 15,19.5 A 0.5,0.5 0 0 1 14.5,20 0.5,0.5 0 0 1 14,19.5 0.5,0.5 0 0 1 14.5,19 0.5,0.5 0 0 1 15,19.5 Z" style="fill:#ffe15e"/>
 <path style="opacity:0.2" d="M 9,15 A 0.5,0.5 0 0 1 8.5,15.5 0.5,0.5 0 0 1 8,15 0.5,0.5 0 0 1 8.5,14.5 0.5,0.5 0 0 1 9,15 Z"/>
 <path d="M 9,14.5 A 0.5,0.5 0 0 1 8.5,15 0.5,0.5 0 0 1 8,14.5 0.5,0.5 0 0 1 8.5,14 0.5,0.5 0 0 1 9,14.5 Z" style="fill:#ffe15e"/>
 <path d="M 18,19 A 0.5,0.5 0 0 1 17.5,19.5 0.5,0.5 0 0 1 17,19 0.5,0.5 0 0 1 17.5,18.5 0.5,0.5 0 0 1 18,19 Z" style="opacity:0.2"/>
 <path style="fill:#ffe15e" d="M 18,18.5 A 0.5,0.5 0 0 1 17.5,19 0.5,0.5 0 0 1 17,18.5 0.5,0.5 0 0 1 17.5,18 0.5,0.5 0 0 1 18,18.5 Z"/>
 <path style="fill:#ffffff;opacity:0.2" d="M 12 2 C 11.639396 2.00534 11.382409 2.22914 11.261719 2.6015625 L 11.265625 2.5859375 L 10.699219 4.0507812 L 9.2890625 4.0507812 C 9.2849125 4.050712 9.2795556 4.050712 9.2753906 4.0507812 C 9.0472186 4.0584412 8.8422206 4.1687806 8.6972656 4.3515625 C 8.4967857 4.5899135 8.4687544 4.8497023 8.5664062 5.0820312 C 8.5991018 5.0040298 8.6344521 4.9262416 8.6972656 4.8515625 C 8.8422206 4.6687806 9.0472186 4.5584412 9.2753906 4.5507812 C 9.2795556 4.550712 9.2849125 4.550712 9.2890625 4.5507812 L 10.699219 4.5507812 L 11.265625 3.0859375 L 11.261719 3.1035156 C 11.382409 2.7310931 11.639396 2.50534 12 2.5 C 12.360604 2.5053384 12.617479 2.7310929 12.738281 3.1035156 L 12.734375 3.0859375 L 13.300781 4.5507812 L 14.710938 4.5507812 C 14.715117 4.5507121 14.720409 4.5507121 14.724609 4.5507812 C 14.952781 4.5584412 15.15778 4.6687805 15.302734 4.8515625 C 15.365548 4.9262416 15.400898 5.0040298 15.433594 5.0820312 C 15.531245 4.8497022 15.503215 4.5899134 15.302734 4.3515625 C 15.15778 4.1687805 14.952781 4.0584413 14.724609 4.0507812 C 14.720409 4.0507121 14.715117 4.0507121 14.710938 4.0507812 L 13.300781 4.0507812 L 12.734375 2.5859375 L 12.738281 2.6015625 C 12.617479 2.2291398 12.360604 2.0053384 12 2 z M 9.7070312 6.9140625 L 9.2675781 7.9511719 C 9.2669281 7.9532219 9.266225 7.9549313 9.265625 7.9570312 C 9.2172349 8.1216753 9.2250323 8.2866836 9.2734375 8.4394531 L 9.8515625 7.0761719 L 9.7070312 6.9140625 z M 14.292969 6.9140625 L 14.148438 7.0761719 L 14.726562 8.4394531 C 14.774971 8.2866836 14.782766 8.1216753 14.734375 7.9570312 L 14.732422 7.9511719 L 14.292969 6.9140625 z"/>
</svg>
